Newaita/actions/24/tool-tweak.svg

<svg height="24" viewBox="0 0 24 24" width="24" xmlns="http://www.w3.org/2000/svg"><path d="m16.375 3.167969c-.113281 0-.230469.019531-.335938.058593-2.671874.964844-5.824218 2.34375-8.378906 4.039063-2.554687 1.699219-4.679687 3.738281-4.679687 6.316406v1.488281h-.003907v4.960938c0 .550781.441407.996094.992188.996094h15.875c.550781 0 .996094-.445313.996094-.996094v-4.960938h-.007813v-1.488281c0-1.046875-.664062-1.792969-1.292969-2.347656-.625-.558594-1.308593-1.035156-1.847656-1.574219-.539062-.539062-.921875-1.09375-1.0625-1.839844-.140625-.75-.042968-1.765624.640625-3.25.140625-.304687.117188-.660156-.0625-.945312-.183593-.28125-.496093-.453125-.832031-.457031zm-1.613281 2.667969c-.1875.863281-.207031 1.644531-.074219 2.347656.234375 1.238281.90625 2.171875 1.605469 2.875.703125.699218 1.445312 1.214844 1.933593 1.652344.492188.433593.632813.679687.632813.871093v1.488281h-.007813v3.472657c0 .277343-.21875.496093-.496093.496093h-12.898438c-.273437 0-.496093-.21875-.496093-.496093v-3.472657h-.003907v-1.488281c0-1.390625 1.457031-3.117187 3.796875-4.667969 1.765625-1.175781 3.941406-2.230468 6.007813-3.078124zm0 0" fill="#424242"/></svg>

<?xml version="1.0" encoding="UTF-8"?>
<svg xmlns="http://www.w3.org/2000/svg" xmlns:xlink="http://www.w3.org/1999/xlink" width="24px" height="24px" viewBox="0 0 24 24" version="1.1">
<g id="surface1">
<path style=" stroke:none;fill-rule:nonzero;fill:rgb(25.882354%,25.882354%,25.882354%);fill-opacity:1;" d="M 16.375 3.167969 C 16.261719 3.167969 16.144531 3.1875 16.039062 3.226562 C 13.367188 4.191406 10.214844 5.570312 7.660156 7.265625 C 5.105469 8.964844 2.980469 11.003906 2.980469 13.582031 L 2.980469 15.070312 L 2.976562 15.070312 L 2.976562 20.03125 C 2.976562 20.582031 3.417969 21.027344 3.96875 21.027344 L 19.84375 21.027344 C 20.394531 21.027344 20.839844 20.582031 20.839844 20.03125 L 20.839844 15.070312 L 20.832031 15.070312 L 20.832031 13.582031 C 20.832031 12.535156 20.167969 11.789062 19.539062 11.234375 C 18.914062 10.675781 18.230469 10.199219 17.691406 9.660156 C 17.152344 9.121094 16.769531 8.566406 16.628906 7.820312 C 16.488281 7.070312 16.585938 6.054688 17.269531 4.570312 C 17.410156 4.265625 17.386719 3.910156 17.207031 3.625 C 17.023438 3.34375 16.710938 3.171875 16.375 3.167969 Z M 14.761719 5.835938 C 14.574219 6.699219 14.554688 7.480469 14.6875 8.183594 C 14.921875 9.421875 15.59375 10.355469 16.292969 11.058594 C 16.996094 11.757812 17.738281 12.273438 18.226562 12.710938 C 18.71875 13.144531 18.859375 13.390625 18.859375 13.582031 L 18.859375 15.070312 L 18.851562 15.070312 L 18.851562 18.542969 C 18.851562 18.820312 18.632812 19.039062 18.355469 19.039062 L 5.457031 19.039062 C 5.183594 19.039062 4.960938 18.820312 4.960938 18.542969 L 4.960938 15.070312 L 4.957031 15.070312 L 4.957031 13.582031 C 4.957031 12.191406 6.414062 10.464844 8.753906 8.914062 C 10.519531 7.738281 12.695312 6.683594 14.761719 5.835938 Z M 14.761719 5.835938 "/>
</g>
</svg>
